!!!!SEGMENT: pl-wtm--r-563-m--001_moniuszko-stanislaw--sonety-krymskie-cisza-morska.krn
!!!cenid: 18xx:2983
!!!COM: Moniuszko, Stanisław
!!!COM-rismid: pe30008351
!!!CDT: 1819/05/05-1872/06/04
!!!CNT: Polish
!!!GTL: Sonety Krymskie
!!!OTL: Cisza morska
!!!PDT: 1867
!!!AGN: Secular
!!!SMS-siglum: PL-Wtm
!!!SMS-shelfmark: R 563/M
!!!SMS-shelfwork: 001 G
!!!SMS-variant:
!!!SMS-altvar:
!!!NIFC-rismid: 1001096423
!!!URL-scan: http://repozytorium.nifc.pl/skany/pl-wtm-nut--r563m
!!!ONB-nifc: UWAGA: zawiera Sonety: 1. Cisza morska, 2. Burza, 3. Epilog
!!!AIN: 1 piano 1 vox
!!!key:
**kern	**kern	**dynam	**kern	**text	**dynam
*part2	*part2	*part2	*part1	*part1	*part1
*staff3	*staff2	*	*staff1	*staff1	*
*Ipiano	*Ipiano	*	*Ivox	*	*
*I"[Piano]	*I"[Piano]	*	*I"[Voice]	*	*
*clefF4	*clefG2	*	*clefG2	*	*
*k[b-e-a-d-g-]	*k[b-e-a-d-g-]	*	*k[b-e-a-d-g-]	*	*
*c:	*c:	*	*c:	*	*
*M6/4	*M6/4	*	*M6/4	*	*
!	!	!	!LO:TX:a:t=(x):color=blue:rj	!	!
!	!	!	!LO:TX:t=P:problem=all\middle or right&colon; global	!	!
!	!	!	!LO:TX:t=P:problem=brak metrum	!	!
!LO:TX:t=P:problem=brak klucza i znaków	!LO:TX:t=P:problem=brak klucza i znaków	!	!LO:TX:i:a:t=Chór, Soprany.	!	!
2.ryy	2.ryy	.	2.f/	po-	.
=1	=1	=1	=1	=1	=1
1.ryy	1.ryy	.	2.d-/	-dróż-	.
.	.	.	2f/	-nych	.
.	.	.	4a-/	roz-	.
=2	=2	=2	=2	=2	=2
1.ryy	1.ryy	.	2.dd-/	-śmia-	.
.	.	.	2ff/	-ło	.
.	.	.	4ee-/	się	.
=3||	=3||	=3||	=3||	=3||	=3||
*M4/4	*M4/4	*	*M4/4	*	*
*met(c)	*met(c)	*	*met(c)	*	*
!	!	!LO:DY:b:t=pp:rj	!	!	!
1A- 1D-	1f 1d-	pp	2dd-/	gro-	.
.	.	.	4d-/	-no.	.
!	!	!	!LO:TX:i:a:t=Recit.	!	!
.	.	.	8.r	.	.
*	*	*	*clefF4	*	*
!	!	!	!	!	!LO:DY:a:t=f.:color=black
.	.	.	16f\j	O	f
=4	=4	=4	=4	=4	=4
*	*	*	*2\right	*	*
[>1F 1AA-	[>1f 1c	.	2f 2c\	mo-	.
.	.	.	8c\j	-rze!	.
.	.	.	8r	.	.
.	.	.	8.A-\	po-	.
.	.	.	16B-\	-śród	.
!!LO:LB:g=original
=5	=5	=5	=5	=5	=5
!LO:TX:t=P:problem=brak zakończenia łuku (początek pięciolinii)	!LO:TX:t=P:problem=brak zakończenia łuku (początek pięciolinii)	!	!	!	!
1F_> 1AA-	1f_> 1c	.	4c\	two-	.
.	.	.	8c\	-ich	.
.	.	.	16r	.	.
.	.	.	16c\	we-	.
.	.	.	4e-\	-so-	.
.	.	.	8.d-\	-łych	.
.	.	.	16c\	ży-	.
=6	=6	=6	=6	=6	=6
1F_> [<1GGn	1f_> 1d-	.	2c\	-ją-	.
.	.	.	8B-\	-tek	.
.	.	.	8r	.	.
.	.	.	4B-\	jest	.
=7	=7	=7	=7	=7	=7
1F] 1GG]	1f] 1B-	.	4.d-\	po-	.
.	.	.	8d-\	-lip	.
.	.	.	4.d-\	co	.
.	.	.	8d-\	śpi	.
=8	=8	=8	=8	=8	=8
1Gn 1BB-	1en 1d-	.	2d-\	na	.
.	.	.	8En\	dnie	.
.	.	.	8r	.	.
.	.	.	4E\	gdy	.
!!LO:LB:g=original
=9	=9	=9	=9	=9	=9
*^	*	*	*	*	*
*2\right	*2\right	*2\right	*	*	*	*
1F	2AA-\	1f 1c	.	4F\	nie-	.
.	.	.	.	8A-\	-bo	.
.	.	.	.	8B-\	się	.
.	4GGn\	.	.	[>2c\	chmu-	.
.	4FF\	.	.	.	.	.
*v	*v	*	*	*	*	*
=10	=10	=10	=10	=10	=10
!	!	!	!LO:TX:i:a:t=a tempo.	!	!
4E- 4EE-/	[>2gn [<2c/	.	4c\]	.	.
8.DnL 8.DDn/	.	.	8Gn\	-rzy	.
.	.	.	8r	.	.
16CJk 16CC/	.	.	.	.	.
2C 2CC/	2g] 2e- 2c/]	.	4.c\	a	.
.	.	.	8e-\	na	.
=11	=11	=11	=11	=11	=11
*	*^	*	*	*	*
1FF	1a- 1f	(<2c\	.	4e-\	ci-	.
.	.	.	.	8dn\	-szę	.
.	.	.	.	8c\	dłu-	.
.	.	2dn 2c\)	.	4c\	-gie-	.
.	.	.	.	8B-\	-mi	.
.	.	.	.	8A-\	wy-	.
*	*v	*v	*	*	*	*
!!LO:LB:g=original
=12	=12	=12	=12	=12	=12
2GGn/	2gn 2e- 2c/	.	4Gn\	-wi-	.
.	.	.	8c\	-ja	.
.	.	.	8e-\	ra-	.
!	!	!	!LO:SIC:v:s=2gn	!	!
4r	4r	.	2g-\	-mio-	.
!	!LO:SIC:v:n=1:s=4bn	!LO:DY:b:rj	!	!	!
(<[<8GG^</L	4b- 4g 4f 4dn/	f	.	.	.
32GG/LL]	.	.	.	.	.
32FF/	.	.	.	.	.
*	*ped	*	*	*	*
32EE-/	.	.	.	.	.
32DDn/JJJ)	.	.	.	.	.
=13	=13	=13	=13	=13	=13
*^	*	*	*	*	*
4r	[<1CC^<	4.cc 4.gn 4.e- 4.c/	.	4c\	-ny.	.
8r	.	.	.	4r	.	.
!	!	!	!LO:DY:b:t=pp.:rj	!	!	!
8c 8Gn\	.	8g 8e-/	pp	.	.	.
4.G 4.C/	.	4.ee- 4.cc 4.g\	.	2r	.	.
8c 8G/	.	8g 8e-/	.	.	.	.
=14	=14	=14	=14	=14	=14	=14
4.Gn 4.C/	1CC_<	4.ee- 4.cc 4.gn/	.	2r	.	.
8c 8G/	.	(<8g 8e-/	.	.	.	.
!	!	!	!	!LO:TX:i:a:t=Recit.	!	!
8GL 8C/	.	8.ee-L 8.cc 8.g/)	.	4r	.	.
16r	.	.	.	.	.	.
16G/Jk	.	(<16gK 16e-/	.	.	.	.
!	!	!	!	!	!	!LO:DY:a:color=red
8GL 8C/	.	8ee- 8cc 8g/)	.	8.r	.	p
16r	.	16r	.	.	.	.
!	!	!	!	!	!	!LO:DY:a
!	!	!LO:S:s=2:note:problem=note-level slur	!	!	!	!
16C/Jk	.	16ee-Jk (>16g 16e-/	.	16e-\j	O	p
=15	=15	=15	=15	=15	=15	=15
!	!	!LO:S:s=2:note:problem=note-level slur	!	!LO:TX:a:i:t=dolce	!	!
!	!	!	!LO:DY:b:t=pp.:rj	!	!	!
(>1C	1CC]	1ee- 1a-) [<1e-	pp	2e-\	my-	.
.	.	.	.	8A-\j	-śli!	.
.	.	.	.	8r	.	.
.	.	.	.	8A-\j	w two-	.
.	.	.	.	8B-\j	-jej	.
*v	*v	*	*	*	*	*
!!LO:LB:g=original
=16	=16	=16	=16	=16	=16
!LO:TX:t=P:problem=brak zakończenia łuku (koniec pięciolinii)	!LO:SIC:v:n=1:s=1g-	!	!	!	!
1BB-)	1gn 1e-] [<1d-	.	4c\j	głę-	.
.	.	.	8c\j	-bi	.
.	.	.	16rj	.	.
.	.	.	16d-\j	jest	.
!	!	!	!LO:N:vis=8	!	!
.	.	.	4e-\j	hy-	.
.	.	.	8.f\j	-dra	.
.	.	.	16g-X\j	pa-	.
=17||	=17||	=17||	=17||	=17||	=17||
*	*^	*	*	*	*
!	!	!	!	!LO:TX:t=P:problem=t. 18-24 brak zgodności pionów (prawdopodobnie poprawki w głosie wokalnym nie zostały uzgodnione z partią pf)	!	!
!	!	!	!	!LO:TX:i:a:t=a tempo. piu agitato.	!	!
12AA-|</L	1a- 1e-	(<2d-\]	.	2g-X\j	-mią-	.
12E-|</	.	.	.	.	.	.
12AA-|</J	.	.	.	.	.	.
*Xtuplet	*	*	*	*	*	*
12E-/L	.	.	.	.	.	.
12AA-/	.	.	.	.	.	.
12E-/J	.	.	.	.	.	.
12AA-/L	.	2c\)	.	8f\j	-tek	.
12E-/	.	.	.	.	.	.
.	.	.	.	8r	.	.
12AA-/J	.	.	.	.	.	.
12E-/L	.	.	.	4f\j	co	.
12AA-/	.	.	.	.	.	.
12E-/J	.	.	.	.	.	.
=18	=18	=18	=18	=18	=18	=18
*rep	*	*	*	*	*	*
*tuplet	*	*	*	*	*	*
12AA-|</L	1cc^>	1c	.	2f\j	spi	.
12E-|</	.	.	.	.	.	.
12AA-|</J	.	.	.	.	.	.
*Xtuplet	*	*	*	*	*	*
12E-/L	.	.	.	.	.	.
12AA-/	.	.	.	.	.	.
12E-/J	.	.	.	.	.	.
12AA-/L	.	.	.	4e-\j	po-	.
12E-/	.	.	.	.	.	.
12AA-/J	.	.	.	.	.	.
12E-/L	.	.	.	8.d-\j	-śród	.
12AA-/	.	.	.	.	.	.
12E-/J	.	.	.	.	.	.
.	.	.	.	16c\j	złych	.
*Xrep	*	*	*	*	*	*
*	*v	*v	*	*	*	*
!!LO:PB:g=original
=19	=19	=19	=19	=19	=19
12AA-/L	1cc 1c	.	2c\j	lo-	.
12En/	.	.	.	.	.
12AA-/J	.	.	.	.	.
12E/L	.	.	.	.	.
12AA-/	.	.	.	.	.
12E/J	.	.	.	.	.
12AA-/L	.	.	4B-\j	-sów	.
12F/	.	.	.	.	.
12AA-/J	.	.	.	.	.
12F/L	.	.	4r	.	.
12AA-/	.	.	.	.	.
12F/J	.	.	.	.	.
=20	=20	=20	=20	=20	=20
12AA-/L	1f 1c	.	4.B-\j	i	.
12F/	.	.	.	.	.
12AA-/J	.	.	.	.	.
12F/L	.	.	.	.	.
12AA-/	.	.	.	.	.
.	.	.	8B-\j	na-	.
12F/J	.	.	.	.	.
12AA-/L	.	.	4.gn\j	-mięt-	.
12F/	.	.	.	.	.
12AA-/J	.	.	.	.	.
12F/L	.	.	.	.	.
12AA-/	.	.	.	.	.
.	.	.	8f\j	-nej	.
12F/J	.	.	.	.	.
=21	=21	=21	=21	=21	=21
!LO:TX:t=P:problem=mixed beam	!	!	!	!	!
12GGn/L	1f 1dn	.	2f\j	bu-	.
12Gn\	.	.	.	.	.
12GG/J	.	.	.	.	.
!LO:TX:t=P:problem=mixed beam	!	!	!	!	!
12G\L	.	.	.	.	.
12GG/	.	.	.	.	.
12G\J	.	.	.	.	.
!LO:TX:t=P:problem=mixed beam	!	!	!	!	!
12GG/L	.	.	8en\j	-rzy,	.
12G\	.	.	.	.	.
.	.	.	8r	.	.
12GG/J	.	.	.	.	.
!LO:TX:t=P:problem=mixed beam	!	!	!	!	!
12G\L	.	.	8en\j	a	.
12GG/	.	.	.	.	.
.	.	.	8e\j	gdy	.
12G\J	.	.	.	.	.
!!LO:LB:g=original
=22	=22	=22	=22	=22	=22
!LO:TX:t=P:problem=mixed beam	!	!	!	!	!
12GGn/L	2e- 2c/	.	2f\j	ser-	.
12Gn\	.	.	.	.	.
12GG/J	.	.	.	.	.
!LO:TX:t=P:problem=mixed beam	!	!	!	!	!
12G\L	.	.	.	.	.
12GG/	.	.	.	.	.
12G\J	.	.	.	.	.
!LO:TX:t=P:problem=mixed beam	!	!	!	!	!
12GG/L	4e- 4c/	.	4A-\j	-ce	.
12G\	.	.	.	.	.
12GG/J	.	.	.	.	.
!LO:TX:t=P:problem=mixed beam	!	!	!	!	!
12G\L	4f 4dn/	.	4B-\j	spo-	.
12GG/	.	.	.	.	.
12G\J	.	.	.	.	.
=23	=23	=23	=23	=23	=23
!LO:TX:t=P:problem=mixed beam	!	!	!	!	!
12GGn/L	1gn 1dn 1Bn	.	2c\j	-koj-	.
12Dn\	.	.	.	.	.
12GG/J	.	.	.	.	.
!LO:TX:t=P:problem=mixed beam	!	!	!	!	!
12D\L	.	.	.	.	.
12GG/	.	.	.	.	.
12D\J	.	.	.	.	.
!LO:TX:t=P:problem=mixed beam	!	!	!	!	!
12GG/L	.	.	4c\j	-ne	.
12D\	.	.	.	.	.
12GG/J	.	.	.	.	.
!LO:TX:t=P:problem=mixed beam	!	!	!	!	!
12D\L	.	.	8r	.	.
12GG/	.	.	.	.	.
.	.	.	8c\j	za-	.
12D\J	.	.	.	.	.
=24	=24	=24	=24	=24	=24
12GGn\L	2gn 2e- 2c 2Gn</	.	2.a-\j	-ta-	.
12C\	.	.	.	.	.
12GG\J	.	.	.	.	.
12C\L	.	.	.	.	.
12GG\	.	.	.	.	.
12C\J	.	.	.	.	.
8GG/	2g 2f 2dn 2Bn< 2F</	.	.	.	.
8r	.	.	.	.	.
!LO:SIC:v:n=2:s=8GGGn	!	!LO:DY:b=2:rj	!	!	!
8GG 8GGG-/	.	sf	8.f\Lj	-pia	.
8r	.	.	.	.	.
.	.	.	16en\Jkj	w nim	.
=25	=25	=25	=25	=25	=25
*	*^	*	*	*	*
*tremolo	*	*	*	*	*	*
!	!LO:SIC:v:n=1:s=4.en	!	!	!	!	!
!	!	!	!LO:DY:b:t=ffp.:rj	!	!	!
32CLLL 32CC/	(>4.e-X/	4c\	fp	1gnj	szpo-	.
32C 32CC/	.	.	.	.	.	.
32C 32CC/	.	.	.	.	.	.
32C 32CC/	.	.	.	.	.	.
32C 32CC/	.	.	.	.	.	.
32C 32CC/	.	.	.	.	.	.
32C 32CC/	.	.	.	.	.	.
32C 32CC/	.	.	.	.	.	.
32C 32CC/	.	8Bn</L	.	.	.	.
32C 32CC/	.	.	.	.	.	.
32C 32CC/	.	.	.	.	.	.
32C 32CC/	.	.	.	.	.	.
32C 32CC/	8dn/	8B-X</J	.	.	.	.
32C 32CC/	.	.	.	.	.	.
32C 32CC/	.	.	.	.	.	.
32C 32CC/	.	.	.	.	.	.
32C 32CC/	8c#XL 8An</	2ryy	.	.	.	.
32C 32CC/	.	.	.	.	.	.
32C 32CC/	.	.	.	.	.	.
32C 32CC/	.	.	.	.	.	.
32C 32CC/	8cn 8A-X</	.	.	.	.	.
32C 32CC/	.	.	.	.	.	.
32C 32CC/	.	.	.	.	.	.
32C 32CC/	.	.	.	.	.	.
32C 32CC/	8Bn< [<8Gn</	.	.	.	.	.
32C 32CC/	.	.	.	.	.	.
32C 32CC/	.	.	.	.	.	.
32C 32CC/	.	.	.	.	.	.
32C 32CC/	8B-X<J 8G</]	.	.	.	.	.
32C 32CC/	.	.	.	.	.	.
32C 32CC/	.	.	.	.	.	.
32CJJJ 32CC/	.	.	.	.	.	.
!!LO:LB:g=original
=26	=26	=26	=26	=26	=26	=26
32CLLL 32CC/	[>2.c/	(<4B-< 4G-X</)	.	4c\j	-ny.	.
32C 32CC/	.	.	.	.	.	.
32C 32CC/	.	.	.	.	.	.
32C 32CC/	.	.	.	.	.	.
32C 32CC/	.	.	.	.	.	.
32C 32CC/	.	.	.	.	.	.
32C 32CC/	.	.	.	.	.	.
32C 32CC/	.	.	.	.	.	.
32C 32CC/	.	4A-X< 4F</	.	4r	.	.
32C 32CC/	.	.	.	.	.	.
32C 32CC/	.	.	.	.	.	.
32C 32CC/	.	.	.	.	.	.
32C 32CC/	.	.	.	.	.	.
32C 32CC/	.	.	.	.	.	.
32C 32CC/	.	.	.	.	.	.
32C 32CC/	.	.	.	.	.	.
!	!	!LO:SIC:v:n=2:s=4En	!	!	!	!
32C 32CC/	.	4Gn< 4E-</	.	2r	.	.
32C 32CC/	.	.	.	.	.	.
32C 32CC/	.	.	.	.	.	.
32C 32CC/	.	.	.	.	.	.
32C 32CC/	.	.	.	.	.	.
32C 32CC/	.	.	.	.	.	.
32C 32CC/	.	.	.	.	.	.
32C 32CC/	.	.	.	.	.	.
32C 32CC/	8.c/L]	4F< 4Dn</)	.	.	.	.
32C 32CC/	.	.	.	.	.	.
32C 32CC/	.	.	.	.	.	.
32C 32CC/	.	.	.	.	.	.
32C 32CC/	.	.	.	.	.	.
32C 32CC/	.	.	.	.	.	.
32C 32CC/	16c/Jk	.	.	.	.	.
32CJJJ 32CC/	.	.	.	.	.	.
*Xtremolo	*	*	*	*	*	*
*	*v	*v	*	*	*	*
=27	=27	=27	=27	=27	=27
1E- 1GGn 1CC	1c	.	1r	.	.
==	==	==	==	==	==
*-	*-	*-	*-	*-	*-
!!!system-decoration: {<s1>(s2,s3)}
!!!RDF**kern: | = vertical stroke
!!!RDF**kern: @ = marked note, color=blue
!!!RDF**kern: j = marked note, color=grey
!!!RDF**kern: N = linked
!!!RDF**kern: > = above
!!!RDF**kern: < = below
!!!ENC: Katarzyna Serwa
!!!END: 2021-08-18
!!!ENC: Antoni Szymański
!!!END: 2021-09-25
